icons/dashboard.svg

<svg width="24" height="24" viewBox="0 0 24 24" fill="none" xmlns="http://www.w3.org/2000/svg">
<path fill-rule="evenodd" clip-rule="evenodd" d="M12 3.75C7.44365 3.75 3.75 7.44365 3.75 12C3.75 13.5694 4.18822 15.0365 4.94898 16.2855C6.63031 14.5058 9.03032 13.3411 11.6842 13.2551L14.4697 10.4697C14.7626 10.1768 15.2374 10.1768 15.5303 10.4697C15.8232 10.7626 15.8232 11.2374 15.5303 11.5303L13.6667 13.394C15.7778 13.7621 17.6602 14.8135 19.051 16.2856C19.8118 15.0366 20.25 13.5695 20.25 12C20.25 7.44365 16.5563 3.75 12 3.75ZM12 20.25C9.56198 20.25 7.37096 19.1925 5.86064 17.5111C7.3386 15.8386 9.55285 14.75 11.9999 14.75C14.447 14.75 16.6613 15.8387 18.1393 17.5112C16.629 19.1925 14.438 20.25 12 20.25ZM2.25 12C2.25 6.61522 6.61522 2.25 12 2.25C17.3848 2.25 21.75 6.61522 21.75 12C21.75 17.3848 17.3848 21.75 12 21.75C6.61522 21.75 2.25 17.3848 2.25 12Z" fill="black"/>
</svg>

<svg xmlns="http://www.w3.org/2000/svg" fill="none" viewBox="0 0 24 24">
  <path fill="#000" fill-rule="evenodd" d="M12 3.75a8.25 8.25 0 0 0-7.051 12.535 9.716 9.716 0 0 1 6.735-3.03l2.786-2.785a.75.75 0 1 1 1.06 1.06l-1.863 1.864a9.724 9.724 0 0 1 5.384 2.892A8.25 8.25 0 0 0 12 3.75Zm0 16.5a8.23 8.23 0 0 1-6.14-2.739A8.213 8.213 0 0 1 12 14.75a8.213 8.213 0 0 1 6.14 2.761A8.23 8.23 0 0 1 12 20.25ZM2.25 12c0-5.385 4.365-9.75 9.75-9.75s9.75 4.365 9.75 9.75-4.365 9.75-9.75 9.75S2.25 17.385 2.25 12Z" clip-rule="evenodd"/>
</svg>
